packages/foundations/assets/icons/functional/images/human/toys_28.svg

<svg width="28" height="28" viewBox="0 0 28 28" fill="none" xmlns="http://www.w3.org/2000/svg">
<g clip-path="url(#clip0_185_1216)">
<path fill-rule="evenodd" clip-rule="evenodd" d="M21 1.75C23.8995 1.75 26.25 4.10051 26.25 7C26.25 8.52403 25.6035 9.9668 24.4151 10.9856C24.4703 11.3883 24.4986 11.8098 24.5 12.25C24.5 17.5657 20.1907 21.875 14.875 21.875C14.4366 21.875 14.0017 21.8456 13.5721 21.7875C13.0933 21.7226 12.7576 21.2818 12.8225 20.8029C12.8874 20.3241 13.3281 19.9884 13.807 20.0533C14.1587 20.1009 14.5152 20.125 14.875 20.125C19.2242 20.125 22.75 16.5992 22.75 12.25C22.75 11.8492 22.7046 11.0841 22.5039 10.213C23.971 9.3751 24.5 8.16938 24.5 7C24.5 5.067 22.933 3.5 21 3.5C20.0892 3.5 19.0903 3.79815 18.0572 5.02128C16.5573 4.46103 15.7874 4.375 14.875 4.375C14.0767 4.375 13.1964 4.45667 11.6931 5.02092C10.6543 3.76899 9.7299 3.5 8.75 3.5C6.817 3.5 5.31949 5.06825 5.25 7C5.17837 8.99101 6.97066 10.033 7.24484 10.2104C7.19976 10.4335 7 11.375 7 12.25C7 13.125 7.08037 13.4307 7.18117 14.0397C9.54684 14.343 11.375 16.3643 11.375 18.8125C11.375 19.9685 10.9674 21.0293 10.2881 21.859L11.0644 22.7775C11.1652 22.7594 11.269 22.75 11.375 22.75C12.3415 22.75 13.125 23.5335 13.125 24.5C13.125 25.4665 12.3415 26.25 11.375 26.25C10.4085 26.25 9.625 25.4665 9.625 24.5C9.625 24.2924 9.66116 24.0932 9.72751 23.9084L8.95222 22.9907C8.24811 23.3943 7.43225 23.625 6.5625 23.625C3.90463 23.625 1.75 21.4704 1.75 18.8125C1.75 16.543 3.32101 14.6404 5.43488 14.1328C5.31163 13.43 5.25 12.8024 5.25 12.25C5.25 11.5904 5.28438 11.4217 5.334 10.9847C4.66892 10.422 3.50763 9.04522 3.50489 7.22777C3.5 3.99016 5.8505 1.75 8.75 1.75C9.97332 1.75 11.0644 2.11525 12.1643 3.0135C12.9749 2.7545 13.8785 2.625 14.875 2.625C15.7408 2.625 16.9043 2.77847 17.5849 3.0135C18.6797 2.11591 19.7408 1.75 21 1.75ZM15.8813 13.125C16.292 13.125 16.625 13.458 16.625 13.8687C16.625 14.2795 16.292 14.6125 15.8813 14.6125H15.6187L15.6197 15.4003C15.8709 15.581 16.0983 15.6625 16.3068 15.6625C16.5368 15.6625 16.7154 15.5642 16.8985 15.3125C17.1401 14.9803 17.6053 14.9069 17.9375 15.1485C18.2696 15.3901 18.3431 15.8553 18.1015 16.1875C17.6482 16.8108 17.0314 17.15 16.3068 17.15C15.8528 17.15 15.345 17 14.875 16.6906C14.4332 16.9788 14.1677 17.15 13.4432 17.15C12.7186 17.15 12.1018 16.8108 11.6485 16.1875C11.4069 15.8553 11.4803 15.3901 11.8125 15.1485C12.1447 14.9069 12.6099 14.9803 12.8515 15.3125C13.0346 15.5642 13.2132 15.6625 13.4432 15.6625C13.6519 15.6625 13.8796 15.5808 14.1312 15.3997L14.1313 14.6125H13.8687C13.458 14.6125 13.125 14.2795 13.125 13.8687C13.125 13.458 13.458 13.125 13.8687 13.125H15.8813ZM11.1562 9.1875C11.7603 9.1875 12.25 9.67719 12.25 10.2812C12.25 10.8853 11.7603 11.375 11.1562 11.375C10.5522 11.375 10.0625 10.8853 10.0625 10.2812C10.0625 9.67719 10.5522 9.1875 11.1562 9.1875ZM19.0312 9.1875C19.6353 9.1875 20.125 9.67719 20.125 10.2812C20.125 10.8853 19.6353 11.375 19.0312 11.375C18.4272 11.375 17.9375 10.8853 17.9375 10.2812C17.9375 9.67719 18.4272 9.1875 19.0312 9.1875ZM9.42046 17.7098L9.32738 17.8865C8.44939 19.4864 6.87037 20.7701 5.02567 21.4634C5.47719 21.7246 6.00228 21.875 6.5625 21.875C8.25387 21.875 9.625 20.5039 9.625 18.8125C9.625 18.4237 9.55257 18.0519 9.42046 17.7098ZM6.5625 15.75C4.87113 15.75 3.5 17.1211 3.5 18.8125C3.5 19.2477 3.59076 19.6616 3.75439 20.0365C5.82423 19.4766 7.58157 18.0003 8.13447 16.2518L8.15596 16.1967C7.69174 15.9133 7.14619 15.75 6.5625 15.75Z" fill="#1A1C1F"/>
</g>
<defs>
<clipPath id="clip0_185_1216">
<rect width="28" height="28" fill="white"/>
</clipPath>
</defs>
</svg>

<svg xmlns="http://www.w3.org/2000/svg" width="28" height="28" fill="none"><g clip-path="url(#a)"><path fill="#1A1C1F" fill-rule="evenodd" d="M21 1.75c2.9 0 5.25 2.35 5.25 5.25a5.21 5.21 0 0 1-1.835 3.986q.083.603.085 1.264a9.625 9.625 0 0 1-10.928 9.538.875.875 0 0 1 .235-1.735 7.875 7.875 0 0 0 8.943-7.803c0-.4-.045-1.166-.246-2.037C23.97 9.375 24.5 8.169 24.5 7A3.5 3.5 0 0 0 21 3.5c-.91 0-1.91.298-2.943 1.521-1.5-.56-2.27-.646-3.182-.646-.798 0-1.679.082-3.182.646C10.654 3.769 9.73 3.5 8.75 3.5c-1.933 0-3.43 1.568-3.5 3.5-.072 1.991 1.72 3.033 1.995 3.21C7.2 10.433 7 11.375 7 12.25s.08 1.18.181 1.79a4.813 4.813 0 0 1 3.107 7.819l.776.918q.152-.027.311-.027a1.75 1.75 0 1 1-1.647 1.158l-.776-.917a4.812 4.812 0 1 1-3.517-8.858 11 11 0 0 1-.185-1.883c0-.66.034-.828.084-1.265-.665-.563-1.826-1.94-1.83-3.757C3.5 3.99 5.852 1.75 8.75 1.75c1.223 0 2.314.365 3.414 1.264q1.216-.39 2.711-.389c.866 0 2.03.153 2.71.389C18.68 2.116 19.74 1.75 21 1.75m-5.119 11.375a.744.744 0 0 1 0 1.488h-.262v.787c.252.181.48.262.688.262.23 0 .408-.098.591-.35a.744.744 0 0 1 1.204.876c-.454.623-1.07.962-1.795.962-.454 0-.962-.15-1.432-.46-.442.289-.707.46-1.432.46-.724 0-1.341-.34-1.794-.962a.744.744 0 0 1 1.203-.875c.183.251.361.35.591.35.209 0 .437-.082.688-.263v-.787h-.262a.744.744 0 0 1 0-1.488zm-4.725-3.937a1.094 1.094 0 1 1 0 2.187 1.094 1.094 0 0 1 0-2.187m7.875 0a1.094 1.094 0 1 1 0 2.187 1.094 1.094 0 0 1 0-2.187m-9.61 8.522-.094.177c-.878 1.6-2.457 2.883-4.301 3.576A3.062 3.062 0 0 0 9.42 17.71m-2.858-1.96a3.062 3.062 0 0 0-2.809 4.287c2.07-.56 3.828-2.037 4.38-3.785l.022-.055a3.05 3.05 0 0 0-1.594-.447" clip-rule="evenodd"/></g><defs><clipPath id="a"><path fill="#fff" d="M0 0h28v28H0z"/></clipPath></defs></svg>
